X: 554
T: As The Sun Was Setting
B: good tune book
B: tunes
M:3/4
R: waltz
Q: 1/4=100
K:Aminor
V:1 
e2a g>ag|e2d c>BA|1 B>AG A>BA|E2E:|2 e>de A>GE|A3||
 a>ba ^g2 e/^f/|g>ag ^f2 d/e/|f>gf e2d|c>dc B2E|
 A>BA e2a|e2d c>BA|e>de A>GE|A3 z3||
% abcbook-tune_id 63dcd46c9b821f3bcb0366a2
% abcbook-tune_composer_id 
% abcbook-link-0 https://www.youtube.com/watch?v=OI5N5gXTEfo
% abcbook-link-title-0 &#39;As the sun was setting&#39; by John Kirkpatrick played by Alexander Roberts
% abcbook-link-start-at-0 7
% abcbook-boost 0
% abcbook-difficulty 0
% abcbook-tags good tune book
% abcbook-tablature 
% abcbook-transpose 
% abcbook-tuning 
% abcbook-lastupdated 1675423232085
% abcbook-soundfonts 
% abcbook-repeats 1


